X: 1138
T: Sir Philip McHugh
B:O'Neill's Music of Ireland
N:O'Neill's - 1138
Z:Transcribed by Stephen Foy (shf@access.digex.net)
Z:abc 1.6
M:9/8
R:slipjig
K:G
D|G2 c BGB c2 A|B2 d cAG F2 D|G2 c BGB c2 A|B2 d cAF G2:|
|:B|ABA AFD FED|ABA AFD G2 B|ABA AFD FED|B2 d cAF G2:|


